X:1
T:Still I Love Him
M:3/4
L:1/4
K:C
 C E G| G F E| D C D| C2- C| C E G| c c c| B A B| G3| c2 A| G2 E| F2 D|\
 E G2| c2 A| G E C| D3/2 E/2 D| C3|

